X: 11286
T: E To E
R: reel
M: 4/4
K: Eminor
|:eE (3EEE GFEB,|CEGE FAd^d|eE (3EEE GFEA|(3Bcd ef gefd|
eE (3EEE GFEB,|CEGE FAdc|~B3G AFFF|1 BFAF E^d (3ddd:|2 BFAF E3A||
|:Bdef geag|fdAF DFAd|B~G3 A~F3|BFdF eFdF|
EBef geag|fdAF DFAd|~B3G AF (3FFF|1 BFAF E3A:|2 BFAF E^d (3ddd||

